Yaru++/mimetypes/scalable/text-x-arduino.svg

<svg height="256" viewBox="0 0 67.73 67.73" width="256" xmlns="http://www.w3.org/2000/svg" xmlns:xlink="http://www.w3.org/1999/xlink"><linearGradient id="a" gradientUnits="userSpaceOnUse" x1="48.50461" x2="41.783234" y1="11.951899" y2="18.809672"><stop offset="0" stop-color="#46b7bc"/><stop offset="1" stop-color="#64c3c6"/></linearGradient><filter id="b" color-interpolation-filters="sRGB" height="1.072" width="1.072" x="-.036" y="-.036"><feGaussianBlur stdDeviation=".99"/></filter><radialGradient id="c" cx="179.99261" cy="103.2822" gradientTransform="matrix(1.3687341 -.00000021 .0000002 1.3528551 -121.02851 -70.900578)" gradientUnits="userSpaceOnUse" r="35.068905"><stop offset="0"/><stop offset="1" stop-opacity="0"/></radialGradient><filter id="d" color-interpolation-filters="sRGB" height="1.144" width="1.144" x="-.072" y="-.072"><feGaussianBlur stdDeviation="1.98"/></filter><linearGradient id="e" gradientUnits="userSpaceOnUse" x1="88" x2="488" y1="88" y2="488"><stop offset="0" stop-opacity=".588235"/><stop offset=".88" stop-opacity="0"/><stop offset="1"/></linearGradient><filter id="f" color-interpolation-filters="sRGB" height="1.087725" width="1.105998" x="-.052999" y="-.043863"><feGaussianBlur stdDeviation="8.4801079"/></filter><filter id="g" color-interpolation-filters="sRGB" height="1.021931" width="1.0265" x="-.01325" y="-.010966"><feGaussianBlur stdDeviation="2.120027"/></filter><path d="m189.84323 74c-70.59344 0-78.18921 7.250835-77.84323 77.98706v146.01294 146.01294c-.34598 70.73623 7.24979 77.98706 77.84323 77.98706h196.31354c70.59344 0 76.00668-7.27384 77.84323-77.98706v-146.01294-98l-128-126z" filter="url(#g)" opacity=".1" transform="matrix(.13228516 0 0 .13228516 -4.409451 -6.038882)"/><path d="m189.84323 74c-70.59344 0-78.18921 7.250835-77.84323 77.98706v146.01294 146.01294c-.34598 70.73623 7.24979 77.98706 77.84323 77.98706h196.31354c70.59344 0 77.84323-7.24999 77.84323-77.98706v-146.01294-96l-128-128z" fill="url(#e)" filter="url(#f)" opacity=".3" transform="matrix(.13228516 0 0 .13228516 -4.409451 -6.038882)"/><path d="m20.703991 3.4856501c-9.338465 0-10.343274.9591779-10.297506 10.3165309v19.315344 19.315344c-.04577 9.357355.959041 10.316531 10.297506 10.316531h25.969365c9.338465 0 10.297506-.959068 10.297506-10.316531v-19.315344-12.699375l-16.9325-16.9324999z" fill="#0ca1a6"/><path d="m20.70406 3.4856501c-9.338467 0-10.343343.9593396-10.297575 10.3166919v.529141c-.04577-9.3573527.959108-10.3166923 10.297575-10.3166923h19.334302v-.5291406z" fill="#fff" opacity=".4"/><g enable-background="new" fill="#fff" transform="matrix(.26457031 0 0 .26457031 -6.525955 -1.80582)"><path d="m212.00181 155.99999c0-16.51324-13.321-30.00226-29.49823-30.00226-1.51211 0-3.03622.18002-4.54834.36003-12.63695 1.95614-21.07358 11.54486-25.95795 18.81742-4.71636-7.28455-13.321-17.04128-25.95795-18.81742-1.51212-.18001-3.03623-.36003-4.54834-.36003-16.34524 0-29.498224 13.48902-29.498224 30.00226s13.321004 30.00226 29.498224 30.00226c1.51211 0 3.03622-.18002 4.54834-.36003 12.63695-1.95614 21.07358-11.54486 25.95795-18.81742 4.71636 7.45256 13.15299 17.04129 25.95795 18.81742 1.51212.18001 3.03623.36003 4.54834.36003 16.17723 0 29.49823-13.30901 29.49823-30.00226zm-87.30657 19.17745c-1.00808.18-2.02816.18-3.20424.18-10.78882 0-19.38146-8.70065-19.38146-19.34544 0-10.65681 8.76065-19.34546 19.38146-19.34546 1.00806 0 2.02815.18002 3.20424.18002 11.9649 1.77613 19.21344 14.19706 21.74563 19.17743-2.53219 4.96838-9.78073 17.40131-21.74563 19.17744zm32.87047-19.17745c2.53219-4.96838 9.78074-17.40131 21.74564-19.17744 1.00808-.18001 2.02814-.18001 3.20424-.18001 10.78881 0 19.38146 8.70065 19.38146 19.34545 0 10.65681-8.76067 19.34546-19.38146 19.34546-1.00808 0-2.02815 0-3.20424-.18002-11.9649-1.77614-19.21345-14.19706-21.74564-19.17743z" opacity=".7" stroke-width="12.000902"/><path d="m106.02059 151.00999v10.00434h33.9758v-10.00434z" stroke-width="10.644339"/><path d="m166.00682 151.01718v10.24043l.01-.24732 10.97327.01c-.0168 2.80397-.004 6.71584.006 9.99191 3.38408.0168 6.54059.0383 10.01022-.008l-.007-10.00364 10.99294-.00013v-9.98261l-10.98243.01-.01-10.02977-9.98394.01-.01 10.02061z" stroke-width="10.449011"/></g><path d="m185.33354 74.825228-64-65.9999998.003 24.9985698v1 .53711c0 35.29429 1.62603 39.63197 36.99414 39.45899z" fill="url(#c)" filter="url(#d)" opacity=".1" transform="matrix(.26457031 0 0 .26457031 7.937108 1.150757)"/><path d="m185.33354 74.825228v-2l-64-63.9999998v24.9990938 1 .53711c0 34.463796 4 39.463796 36.99414 39.458996z" filter="url(#b)" opacity=".1" transform="matrix(.26457031 0 0 .26457031 7.937108 1.150757)"/><path d="m56.970086 20.41674-16.930949-16.9309523v6.0846013.2645703.1421034c0 9.3378213.95934 10.4854433 10.316692 10.4396773z" fill="url(#a)"/></svg>

<?xml version="1.0" encoding="UTF-8" standalone="no"?>
<svg
   xmlns:dc="http://purl.org/dc/elements/1.1/"
   xmlns:cc="http://creativecommons.org/ns#"
   xmlns:rdf="http://www.w3.org/1999/02/22-rdf-syntax-ns#"
   xmlns:svg="http://www.w3.org/2000/svg"
   xmlns="http://www.w3.org/2000/svg"
   xmlns:xlink="http://www.w3.org/1999/xlink"
   xmlns:sodipodi="http://sodipodi.sourceforge.net/DTD/sodipodi-0.dtd"
   xmlns:inkscape="http://www.inkscape.org/namespaces/inkscape"
   height="256"
   viewBox="0 0 67.73 67.73"
   width="256"
   version="1.1"
   id="svg42"
   sodipodi:docname="text-x-arduino.svg"
   inkscape:version="0.92.5 (2060ec1f9f, 2020-04-08)">
  <metadata
     id="metadata48">
    <rdf:RDF>
      <cc:Work
         rdf:about="">
        <dc:format>image/svg+xml</dc:format>
        <dc:type
           rdf:resource="http://purl.org/dc/dcmitype/StillImage" />
        <dc:title />
      </cc:Work>
    </rdf:RDF>
  </metadata>
  <defs
     id="defs46">
    <linearGradient
       gradientTransform="matrix(0.26457031,0,0,0.26457031,-6.5260144,-8.1554446)"
       inkscape:collect="always"
       xlink:href="#linearGradient19432"
       id="linearGradient12719-7"
       x1="208"
       y1="76"
       x2="182.59512"
       y2="101.92042"
       gradientUnits="userSpaceOnUse" />
    <linearGradient
       id="linearGradient19432"
       inkscape:collect="always">
      <stop
         id="stop19428"
         offset="0"
         style="stop-color:#46b7bc;stop-opacity:1" />
      <stop
         id="stop19430"
         offset="1"
         style="stop-color:#64c3c6;stop-opacity:1" />
    </linearGradient>
    <filter
       inkscape:collect="always"
       style="color-interpolation-filters:sRGB"
       id="filter8603"
       x="-0.035999998"
       width="1.072"
       y="-0.035999998"
       height="1.072">
      <feGaussianBlur
         inkscape:collect="always"
         stdDeviation="0.99"
         id="feGaussianBlur8605" />
    </filter>
    <radialGradient
       inkscape:collect="always"
       xlink:href="#linearGradient1750"
       id="radialGradient1752"
       cx="179.99261"
       cy="103.2822"
       fx="179.99261"
       fy="103.2822"
       r="35.068905"
       gradientTransform="matrix(1.3687341,-2.0954866e-7,2.0316901e-7,1.3528551,-121.02851,-70.900578)"
       gradientUnits="userSpaceOnUse" />
    <linearGradient
       inkscape:collect="always"
       id="linearGradient1750">
      <stop
         style="stop-color:#000000;stop-opacity:1;"
         offset="0"
         id="stop1746" />
      <stop
         style="stop-color:#000000;stop-opacity:0;"
         offset="1"
         id="stop1748" />
    </linearGradient>
    <filter
       inkscape:collect="always"
       style="color-interpolation-filters:sRGB"
       id="filter2553"
       x="-0.071999997"
       width="1.1440001"
       y="-0.071999997"
       height="1.1440001">
      <feGaussianBlur
         inkscape:collect="always"
         stdDeviation="1.98"
         id="feGaussianBlur2555" />
    </filter>
    <linearGradient
       inkscape:collect="always"
       xlink:href="#linearGradient4360"
       id="linearGradient4358"
       x1="88"
       y1="88"
       x2="488"
       y2="488"
       gradientUnits="userSpaceOnUse" />
    <linearGradient
       id="linearGradient4360"
       inkscape:collect="always">
      <stop
         id="stop4362"
         offset="0"
         style="stop-color:#000000;stop-opacity:0.58823532" />
      <stop
         style="stop-color:#000000;stop-opacity:0"
         offset="0.88"
         id="stop4364" />
      <stop
         id="stop4366"
         offset="1"
         style="stop-color:#000000;stop-opacity:1" />
    </linearGradient>
    <filter
       inkscape:collect="always"
       style="color-interpolation-filters:sRGB"
       id="filter4380"
       x="-0.052999184"
       width="1.1059984"
       y="-0.043862626"
       height="1.0877253">
      <feGaussianBlur
         inkscape:collect="always"
         stdDeviation="8.4801079"
         id="feGaussianBlur4382" />
    </filter>
    <filter
       inkscape:collect="always"
       style="color-interpolation-filters:sRGB"
       id="filter4346"
       x="-0.013249796"
       width="1.0264996"
       y="-0.010965657"
       height="1.0219313">
      <feGaussianBlur
         inkscape:collect="always"
         stdDeviation="2.120027"
         id="feGaussianBlur4348" />
    </filter>
  </defs>
  <sodipodi:namedview
     pagecolor="#ffffff"
     bordercolor="#666666"
     borderopacity="1"
     objecttolerance="10"
     gridtolerance="10"
     guidetolerance="10"
     inkscape:pageopacity="0"
     inkscape:pageshadow="2"
     inkscape:window-width="1920"
     inkscape:window-height="1024"
     id="namedview44"
     showgrid="false"
     inkscape:zoom="3.4639785"
     inkscape:cx="69.593771"
     inkscape:cy="129.82524"
     inkscape:window-x="0"
     inkscape:window-y="28"
     inkscape:window-maximized="1"
     inkscape:current-layer="svg42" />
  <linearGradient
     id="a"
     gradientTransform="matrix(0 -.11988342 .11987999 0 .362762 292.01605)"
     gradientUnits="userSpaceOnUse"
     x1="529.65515"
     x2="-35.310345"
     y1="401.58368"
     y2="119.09284">
    <stop
       offset="0"
       stop-color="#f2f2f2"
       id="stop2" />
    <stop
       offset="1"
       stop-color="#f9f9f9"
       id="stop4" />
  </linearGradient>
  <linearGradient
     id="b"
     gradientUnits="userSpaceOnUse"
     x1="88"
     x2="488"
     y1="88"
     y2="488">
    <stop
       offset="0"
       stop-opacity=".588235"
       id="stop7" />
    <stop
       offset=".88"
       stop-opacity="0"
       id="stop9" />
    <stop
       offset="1"
       id="stop11" />
  </linearGradient>
  <filter
     id="c"
     color-interpolation-filters="sRGB"
     height="1.087725"
     width="1.105998"
     x="-.052999"
     y="-.043863">
    <feGaussianBlur
       stdDeviation="8.4801079"
       id="feGaussianBlur14" />
  </filter>
  <filter
     id="d"
     color-interpolation-filters="sRGB"
     height="1.021931"
     width="1.0265"
     x="-.01325"
     y="-.010966">
    <feGaussianBlur
       stdDeviation="2.120027"
       id="feGaussianBlur17" />
  </filter>
  <path
     style="color:#000000;display:inline;overflow:visible;visibility:visible;opacity:0.1;fill:#000000;fill-opacity:1;fill-rule:nonzero;stroke:none;stroke-width:2;marker:none;filter:url(#filter4346);enable-background:accumulate"
     d="M 189.84323,74 C 119.24979,74 111.65402,81.250835 112,151.98706 V 298 444.01294 C 111.65402,514.74917 119.24979,522 189.84323,522 H 386.15677 C 456.75021,522 462.16345,514.72616 464,444.01294 V 298 200 L 336,74 Z"
     id="rect4158-9"
     inkscape:connector-curvature="0"
     sodipodi:nodetypes="scccssscccs"
     transform="matrix(0.13228516,0,0,0.13228516,-4.4094514,-6.0388816)" />
  <path
     sodipodi:nodetypes="scccssscccs"
     inkscape:connector-curvature="0"
     id="path4350"
     d="M 189.84323,74 C 119.24979,74 111.65402,81.250835 112,151.98706 V 298 444.01294 C 111.65402,514.74917 119.24979,522 189.84323,522 H 386.15677 C 456.75021,522 464,514.75001 464,444.01294 V 298 202 L 336,74 Z"
     style="color:#000000;display:inline;overflow:visible;visibility:visible;opacity:0.3;fill:url(#linearGradient4358);fill-opacity:1;fill-rule:nonzero;stroke:none;stroke-width:2;marker:none;filter:url(#filter4380);enable-background:accumulate"
     transform="matrix(0.13228516,0,0,0.13228516,-4.4094514,-6.0388816)" />
  <path
     style="color:#000000;display:inline;overflow:visible;visibility:visible;fill:#0ca1a6;fill-opacity:1;fill-rule:nonzero;stroke:none;stroke-width:0.26457033;marker:none;enable-background:accumulate"
     d="m 20.703991,3.4856501 c -9.338465,0 -10.343274,0.9591779 -10.297506,10.3165309 V 33.117525 52.432869 C 10.360715,61.790224 11.365526,62.7494 20.703991,62.7494 h 25.969365 c 9.338465,0 10.297506,-0.959068 10.297506,-10.316531 V 33.117525 20.41815 L 40.038362,3.4856501 Z"
     id="rect4158"
     inkscape:connector-curvature="0"
     sodipodi:nodetypes="scccssscccs" />
  <path
     style="color:#000000;display:inline;overflow:visible;visibility:visible;opacity:0.4;fill:#ffffff;fill-opacity:1;fill-rule:nonzero;stroke:none;stroke-width:0.26457033;marker:none;enable-background:accumulate"
     d="m 20.70406,3.4856501 c -9.338467,0 -10.343343,0.9593396 -10.297575,10.3166919 v 0.529141 C 10.360715,4.9741303 11.365593,4.0147907 20.70406,4.0147907 H 40.038362 V 3.4856501 Z"
     id="path931"
     inkscape:connector-curvature="0"
     sodipodi:nodetypes="sccsccs" />
  <g
     transform="matrix(0.26457031,0,0,0.26457031,-6.5259554,-1.8058196)"
     style="display:inline;enable-background:new"
     id="g40782">
    <path
       id="path8-6"
       style="opacity:0.7;fill:#ffffff;stroke-width:12.00090218"
       d="m 212.00181,155.99999 c 0,-16.51324 -13.321,-30.00226 -29.49823,-30.00226 v 0 c -1.51211,0 -3.03622,0.18002 -4.54834,0.36003 v 0 c -12.63695,1.95614 -21.07358,11.54486 -25.95795,18.81742 v 0 c -4.71636,-7.28455 -13.321,-17.04128 -25.95795,-18.81742 v 0 c -1.51212,-0.18001 -3.03623,-0.36003 -4.54834,-0.36003 v 0 c -16.34524,0 -29.498224,13.48902 -29.498224,30.00226 v 0 c 0,16.51324 13.321004,30.00226 29.498224,30.00226 v 0 c 1.51211,0 3.03622,-0.18002 4.54834,-0.36003 v 0 c 12.63695,-1.95614 21.07358,-11.54486 25.95795,-18.81742 v 0 c 4.71636,7.45256 13.15299,17.04129 25.95795,18.81742 v 0 c 1.51212,0.18001 3.03623,0.36003 4.54834,0.36003 v 0 c 16.17723,0 29.49823,-13.30901 29.49823,-30.00226 z m -87.30657,19.17745 c -1.00808,0.18 -2.02816,0.18 -3.20424,0.18 v 0 c -10.78882,0 -19.38146,-8.70065 -19.38146,-19.34544 v 0 c 0,-10.65681 8.76065,-19.34546 19.38146,-19.34546 v 0 c 1.00806,0 2.02815,0.18002 3.20424,0.18002 v 0 c 11.9649,1.77613 19.21344,14.19706 21.74563,19.17743 v 0 c -2.53219,4.96838 -9.78073,17.40131 -21.74563,19.17744 v 0 z m 32.87047,-19.17745 c 2.53219,-4.96838 9.78074,-17.40131 21.74564,-19.17744 v 0 c 1.00808,-0.18001 2.02814,-0.18001 3.20424,-0.18001 v 0 c 10.78881,0 19.38146,8.70065 19.38146,19.34545 v 0 c 0,10.65681 -8.76067,19.34546 -19.38146,19.34546 v 0 c -1.00808,0 -2.02815,0 -3.20424,-0.18002 v 0 C 167.34645,173.37729 160.0979,160.95637 157.56571,155.976 v 0 z"
       inkscape:connector-curvature="0" />
    <path
       id="path10"
       style="fill:#ffffff;stroke-width:10.64433861"
       d="m 106.02059,151.00999 v 0 10.00434 h 33.9758 v 0 -10.00434 0 z"
       inkscape:connector-curvature="0" />
    <path
       id="path12"
       style="fill:#ffffff;stroke-width:10.44901085"
       d="m 166.00682,151.01718 v 10.24043 l 0.01,-0.24732 10.97327,0.01 c -0.0168,2.80397 -0.004,6.71584 0.006,9.99191 3.38408,0.0168 6.54059,0.0383 10.01022,-0.008 l -0.007,-10.00364 10.99294,-1.3e-4 v -9.98261 l -10.98243,0.01 -0.01,-10.02977 -9.98394,0.01 -0.01,10.02061 z"
       inkscape:connector-curvature="0"
       sodipodi:nodetypes="cccccccccccccc" />
  </g>
  <path
     inkscape:connector-curvature="0"
     style="color:#000000;display:inline;overflow:visible;visibility:visible;opacity:0.1;fill:url(#radialGradient1752);fill-opacity:1;fill-rule:nonzero;stroke:none;stroke-width:1;marker:none;filter:url(#filter2553);enable-background:accumulate"
     d="m 185.33354,74.825228 -64,-65.9999998 0.003,24.9985698 v 1 0.53711 c 0,35.29429 1.62603,39.63197 36.99414,39.45899 z"
     id="rect4158-0-3-6"
     sodipodi:nodetypes="ccccscc"
     transform="matrix(0.26457031,0,0,0.26457031,7.9371083,1.1507567)" />
  <path
     inkscape:connector-curvature="0"
     style="color:#000000;display:inline;overflow:visible;visibility:visible;opacity:0.1;fill:#000000;fill-opacity:1;fill-rule:nonzero;stroke:none;stroke-width:1;marker:none;filter:url(#filter8603);enable-background:accumulate"
     d="m 185.33354,74.825228 v -2 l -64,-63.9999998 v 0 24.9990938 1 0.53711 c 0,34.463796 4,39.463796 36.99414,39.458996 z"
     id="rect4158-0-3-2"
     sodipodi:nodetypes="ccccccscc"
     transform="matrix(0.26457031,0,0,0.26457031,7.9371083,1.1507567)" />
  <path
     inkscape:connector-curvature="0"
     style="color:#000000;display:inline;overflow:visible;visibility:visible;fill:url(#linearGradient12719-7);fill-opacity:1;fill-rule:nonzero;stroke:none;stroke-width:0.26457033;marker:none;enable-background:accumulate"
     d="M 56.970086,20.41674 40.039137,3.4857877 V 9.570389 9.8349593 9.9770627 c 0,9.3378213 0.95934,10.4854433 10.316692,10.4396773 z"
     id="rect4158-0-3-27" />
</svg>
